X:21
T:The Needle's Eye
%%score 1 { ( 2 4 ) | ( 3 5 ) }
L:1/8
Q:1/4=100
M:6/8
I:linebreak $
K:F
V:1 treble nm="Violin"
V:2 treble nm="Piano"
V:4 treble 
V:3 bass 
V:5 bass 
V:1
F |: A2 A F2 F | B2 B B2 A | G2 G G2 G |$ A3 c2 B | A2 A F2 F | B2 c d2 d | c2 B A2 G |$ F3 FAB | 
w: The|nee- dle's eye no|one can pass, the|thread that's drawn so|true; * It|has caught man- y|love- ly lass, And|now it has caught|you, * You _|
c3 f3 | c3- cAB | c3 f3 | c3- c2 B |$ A2 A F2 F | B2 c d2 d | c2 B A G2 | F3- F2 z :| 
w: look so|neat, * and you|kiss so|sweet, * We|do in- tend, Be-|fore we end, To|see this cou- ple|meet. _|
V:2
F |: A2 A F2 F | B2 B B2 A | G2 G G2 G |$ [CFA]3 [Fc]2 [CEB] | A2 A F2 F | [DB]2 [Fc] [Bd]2 [Fd] | 
[Ec]2 [DB] [CEA]2 [B,EG] |$ [CF]3- [CF][FA][GB] | [FAc]3 [Fcf]3 | [FAc]3 [FAc][FA][GB] | 
[FAc]3 [Fcf]3 | [FAc]3- [FAc]2 [CEB] |$ A2 A F2 F | [DB]2 [Fc] [Bd]2 [Fd] | 
[Ec]2 [DB] [CEA]2 [B,EG] | [A,CF]3- [A,CF]2 z :| 
V:3
z |: F,,2 C, A,3 | G,,2 C, G,3 | C,2 C, B,3 |$ F,,2 C, A,3 | F,,2 C, A,3 | B,,2 F, B,2 C, | 
C,3 C,,2 C, |$ F,,2 C, A,3 | [F,,F,]3 [C,A,]3 | [F,,F,]3 [C,A,]3 | [F,,F,]3 [C,A,]3 | 
[F,,F,]3 [C,A,]2 G, |$ F,,2 C, A,3 | B,,2 F, B,2 B,, | C,3 C,,2 C, | F,2 C, F,,2 z :| 
V:4
x |: [CF]3 C3 | [CE]3 [CE]3 | [B,E]3 [CE]3 |$ x6 | [CF]3 C3 | x6 | x6 |$ x6 | x6 | x6 | x6 | x6 |$ 
[CF]3 C3 | x6 | x6 | x6 :| 
V:5
x |: x3 A,2 A,, | x3 G,2 C, | x3 B,2 C, |$ x3 A,2 A,, | x3 A,2 A,, | x6 | x6 |$ x5 z | x6 | x6 | 
x6 | x6 |$ x3 A,2 A,, | x6 | x6 | x6 :| 



